img/social-icons/viber.svg

<svg width="36" height="37" viewBox="0 0 36 37" fill="none" xmlns="http://www.w3.org/2000/svg">
<path d="M21.6001 1H14.4001C7.45206 1 1.80005 6.65201 1.80005 13.6V19C1.80005 23.8826 4.61256 28.3061 9.00007 30.3896V36.4061C9.00007 36.9281 9.65257 37.1981 10.0216 36.8291L15.2506 31.6046H21.6001C28.5481 31.6046 34.2001 25.9526 34.2001 19V13.6C34.2001 6.65201 28.5481 1 21.6001 1ZM26.3161 24.6165L24.4936 26.3985C22.5766 28.275 17.5726 26.133 13.1626 21.6285C8.75257 17.1195 6.81756 12.0705 8.64007 10.194L10.4626 8.41197C11.1331 7.75497 12.2716 7.76847 13.0231 8.43897L15.6511 11.1255C16.5871 12.084 16.1911 13.6905 14.9536 14.0595C14.0986 14.334 13.5181 15.2745 13.7926 16.1295C14.2471 18.1275 16.7806 20.625 18.6706 21.12C19.5211 21.318 20.4751 20.8545 20.7721 20.004C21.1636 18.7755 22.7791 18.411 23.7196 19.374L26.3431 22.056C27.0001 22.7261 26.9911 23.865 26.3161 24.6165ZM19.6381 9.55002C19.4581 9.55002 19.2781 9.55902 19.1026 9.58152C18.7741 9.61752 18.4771 9.37902 18.4411 9.05052C18.4051 8.72202 18.6436 8.42502 18.9721 8.38902C19.1926 8.36202 19.4176 8.35302 19.6381 8.35302C22.9456 8.35302 25.6366 11.044 25.6366 14.3515C25.6366 14.572 25.6276 14.797 25.6006 15.0175C25.5646 15.3415 25.2631 15.5845 24.9391 15.5485C24.6151 15.5125 24.3721 15.211 24.4081 14.887C24.4261 14.7115 24.4396 14.5315 24.4396 14.3515C24.4396 11.7055 22.2841 9.55002 19.6381 9.55002ZM23.2381 14.3515C23.2381 14.68 22.9636 14.95 22.6351 14.95C22.3111 14.95 22.0366 14.68 22.0366 14.3515C22.0366 13.0285 20.9611 11.953 19.6381 11.953C19.3051 11.953 19.0351 11.683 19.0351 11.35C19.0351 11.0215 19.3051 10.7515 19.6381 10.7515C21.6226 10.7515 23.2381 12.367 23.2381 14.3515ZM27.8146 16.291C27.7381 16.615 27.3916 16.8175 27.0721 16.732C26.7616 16.6465 26.5726 16.3225 26.6446 16.012C26.7751 15.472 26.8381 14.914 26.8381 14.3515C26.8381 10.3825 23.6071 7.15152 19.6381 7.15152C19.4536 7.15152 19.2646 7.15601 19.0801 7.17401C18.7516 7.19651 18.4636 6.94901 18.4366 6.62051C18.4141 6.28751 18.6616 5.99951 18.9901 5.97701C19.2061 5.95901 19.4221 5.95001 19.6381 5.95001C24.2686 5.95001 28.0396 9.72102 28.0396 14.3515C28.0396 15.004 27.9631 15.6565 27.8146 16.291Z" fill="#665CAC"/>
</svg>

<svg width="36" height="37" fill="none" xmlns="http://www.w3.org/2000/svg"><path d="M21.6 1h-7.2C7.452 1 1.8 6.652 1.8 13.6V19c0 4.883 2.813 9.306 7.2 11.39v6.016c0 .522.653.792 1.022.423l5.229-5.224h6.35c6.947 0 12.6-5.652 12.6-12.605v-5.4C34.2 6.652 28.547 1 21.6 1zm4.716 23.616l-1.822 1.782c-1.917 1.877-6.921-.265-11.331-4.77-4.41-4.509-6.345-9.558-4.523-11.434l1.823-1.782c.67-.657 1.809-.644 2.56.027l2.628 2.687c.936.958.54 2.565-.697 2.934-.855.274-1.436 1.214-1.161 2.07.454 1.998 2.988 4.495 4.878 4.99.85.198 1.804-.265 2.101-1.116.392-1.229 2.007-1.593 2.948-.63l2.623 2.682c.657.67.648 1.809-.027 2.56zM19.638 9.55c-.18 0-.36.009-.535.032a.6.6 0 01-.13-1.193 6.005 6.005 0 016.628 6.628.607.607 0 01-.662.532.607.607 0 01-.53-.662 4.809 4.809 0 00-4.77-5.337zm3.6 4.801a.605.605 0 01-.603.599.604.604 0 01-.598-.598 2.4 2.4 0 00-2.399-2.399.603.603 0 01-.603-.603c0-.329.27-.598.603-.598 1.985 0 3.6 1.615 3.6 3.6zm4.577 1.94a.611.611 0 01-.743.441.61.61 0 01-.427-.72 7.07 7.07 0 00.193-1.66c0-3.97-3.23-7.2-7.2-7.2-.184 0-.373.004-.558.022a.6.6 0 01-.09-1.197 7.8 7.8 0 01.648-.027c4.63 0 8.402 3.771 8.402 8.401 0 .653-.077 1.305-.225 1.94z" fill="#665CAC"/></svg>
